material/.icons/material/go-kart.svg

<svg xmlns="http://www.w3.org/2000/svg" viewBox="0 0 24 24"><path d="M18 10h-2.47l-1.15-1.72 1.42-.95-1.1-1.66-4.5 3 1.1 1.66 1.43-.95 1.15 1.74L13 12h-2.8L5.83 5.45l-1.66 1.1 1.7 2.56A5.99 5.99 0 001 15v2h2a3 3 0 003 3 3 3 0 003-3h6a3 3 0 003 3 3 3 0 003-3h2v-2a5 5 0 00-5-5M6 18.5A1.5 1.5 0 014.5 17 1.5 1.5 0 016 15.5 1.5 1.5 0 017.5 17 1.5 1.5 0 016 18.5m12 0a1.5 1.5 0 01-1.5-1.5 1.5 1.5 0 011.5-1.5 1.5 1.5 0 011.5 1.5 1.5 1.5 0 01-1.5 1.5z"/></svg>

<?xml version="1.0" encoding="UTF-8"?><!DOCTYPE svg PUBLIC "-//W3C//DTD SVG 1.1//EN" "http://www.w3.org/Graphics/SVG/1.1/DTD/svg11.dtd"><svg xmlns="http://www.w3.org/2000/svg" xmlns:xlink="http://www.w3.org/1999/xlink" version="1.1" id="mdi-go-kart" width="24" height="24" viewBox="0 0 24 24"><path d="M18,10H15.53L14.38,8.28L15.8,7.33L14.7,5.67L10.2,8.67L11.3,10.33L12.73,9.38L13.88,11.12L13,12H10.2L5.83,5.45L4.17,6.55L5.87,9.11C3.04,9.65 1,12.12 1,15V17H3A3,3 0 0,0 6,20A3,3 0 0,0 9,17H15A3,3 0 0,0 18,20A3,3 0 0,0 21,17H23V15A5,5 0 0,0 18,10M6,18.5A1.5,1.5 0 0,1 4.5,17A1.5,1.5 0 0,1 6,15.5A1.5,1.5 0 0,1 7.5,17A1.5,1.5 0 0,1 6,18.5M18,18.5A1.5,1.5 0 0,1 16.5,17A1.5,1.5 0 0,1 18,15.5A1.5,1.5 0 0,1 19.5,17A1.5,1.5 0 0,1 18,18.5Z" /></svg>
